X: 1
T: Donald MacLean's Farewell to Oban
T: Air, A
L: 1/16
M: C
K: A
|: A2B2| c4B2A2 e4f2e2| c1e3A2B2 c4a2f2| 
[1 e4a2f2 e2c2A2c2| e2c2B2A2 B4:|  [2 e4a2f2 e2f2A2B2| c4A4 A4|] 
|: c2d2| e4c2d2 e4f2=g2| f1a3f2=g2 f1a3a2f2| e4a2f2 e2c2A2c2| e2c2B2A2 B4 |
[1 c2d2| e4c2d2 e4f2=g2| f1a3f2=g2 f1a3a2f2| e4a2f2 e2f2A2B2| c4A4 A4:| 
[2 A2B2| c4B2A2 e4f2e2| c1e3A2B2 c4a2f2| e4a2f2 e2f2A2B2| c4A4 A4|]
|: A2B2| c1A3c2d2 e2A2c2e2| f2e2c2d2 e4f2g2| a2e2c2e2 f2e2c2d2| e2c2B2A2 B4A2B2| 
c1A3c2d2 e2A2c2e2| f2e2c2d2 e4f2g2| a6f2 e2f2A2B2| c4A4 A4:| 
|: c2d2| e4a2e2 c4a2e2| f2g2a2f2 d6f2| e4f2e2 c4A2c2| e2c2B2A2 B4 |
[1 c2d2| e4a2e2 c4a2e2| f2g2a2f2 d6f2| e2c2a2f2 e2c2A2B2| c4A4 A4:| 
[2 A2B2| c2e2d2f2 e2c2A2c2| d2c2B2A2 c4a2f2| e4a2f2 e2f2A2B2| c4A4 A4|] 
S: Mary MacDonald, home recording
